build/img/arrow-button.svg

<svg width="56" height="56" viewBox="0 0 56 56" fill="none" xmlns="http://www.w3.org/2000/svg">
<path d="M0 28C0 12.536 12.536 0 28 0C43.464 0 56 12.536 56 28C56 43.464 43.464 56 28 56C12.536 56 0 43.464 0 28Z" fill="#F4F4F8"/>
<path fill-rule="evenodd" clip-rule="evenodd" d="M32.5 27.9142L31.7929 27.2071L29 24.4142V34V35H27V34V24.4142L24.2071 27.2071L23.5 27.9142L22.0858 26.5L22.7929 25.7929L27.2929 21.2929L28 20.5858L28.7071 21.2929L33.2071 25.7929L33.9142 26.5L32.5 27.9142Z" fill="black"/>
</svg>

<svg width="56" height="56" viewBox="0 0 56 56" fill="none" xmlns="http://www.w3.org/2000/svg"><path d="M0 28C0 12.536 12.536 0 28 0s28 12.536 28 28-12.536 28-28 28S0 43.464 0 28z" fill="#F4F4F8"/><path fill-rule="evenodd" clip-rule="evenodd" d="M32.5 27.914l-.707-.707L29 24.414V35h-2V24.414l-2.793 2.793-.707.707-1.414-1.414.707-.707 4.5-4.5.707-.707.707.707 4.5 4.5.707.707-1.414 1.414z" fill="#000"/></svg>
